public/assets/icons/not_interested.svg

<svg xmlns="http://www.w3.org/2000/svg" height="48" viewBox="0 -960 960 960" width="48"><path d="M480.067-100.001q-78.836 0-148.204-29.92-69.369-29.92-120.682-81.21-51.314-51.291-81.247-120.629-29.933-69.337-29.933-148.173t29.92-148.204q29.92-69.369 81.21-120.682 51.291-51.314 120.629-81.247 69.337-29.933 148.173-29.933t148.204 29.92q69.369 29.92 120.682 81.21 51.314 51.291 81.247 120.629 29.933 69.337 29.933 148.173t-29.92 148.204q-29.92 69.369-81.21 120.682-51.291 51.314-120.629 81.247-69.337 29.933-148.173 29.933ZM480-145.385q61.767 0 118.461-21.269 56.693-21.27 102.078-61.808L228.462-700.539q-39.538 46.385-61.308 102.754Q145.385-541.417 145.385-480q0 140.067 97.274 237.341T480-145.385Zm250.922-114.076q38.924-45.385 61.308-102.078Q814.615-418.233 814.615-480q0-140.067-97.274-237.341T480-814.615q-61.552 0-118.237 21.577-56.686 21.577-102.302 62.116l471.461 471.461Z"/></svg>

<svg xmlns="http://www.w3.org/2000/svg" height="48" viewBox="0 -960 960 960" width="48"><path d="M480.07-100q-78.84 0-148.21-29.92t-120.68-81.21q-51.31-51.29-81.25-120.63Q100-401.1 100-479.93q0-78.84 29.92-148.21t81.21-120.68q51.29-51.31 120.63-81.25Q401.1-860 479.93-860q78.84 0 148.21 29.92t120.68 81.21q51.31 51.29 81.25 120.63Q860-558.9 860-480.07q0 78.84-29.92 148.21t-81.21 120.68q-51.29 51.31-120.63 81.25Q558.9-100 480.07-100Zm-.07-45.39q61.77 0 118.46-21.26 56.69-21.27 102.08-61.81L228.46-700.54q-39.54 46.39-61.31 102.75-21.76 56.37-21.76 117.79 0 140.07 97.27 237.34 97.27 97.27 237.34 97.27Zm250.92-114.07q38.93-45.39 61.31-102.08 22.38-56.69 22.38-118.46 0-140.07-97.27-237.34-97.27-97.27-237.34-97.27-61.55 0-118.24 21.57-56.68 21.58-102.3 62.12l471.46 471.46Z"/></svg>
